contributed-vectors/dead_trigger.svg

<?xml version="1.0" encoding="UTF-8" standalone="no"?>
<svg
   width="192"
   height="192"
   viewBox="0 0 192 192"
   fill="none"
   version="1.1"
   id="svg32"
   sodipodi:docname="dead_trigger.svg"
   xml:space="preserve"
   inkscape:version="1.2 (dc2aedaf03, 2022-05-15)"
   inkscape:export-filename="dead_trigger.png"
   inkscape:export-xdpi="96"
   inkscape:export-ydpi="96"
   xmlns:inkscape="http://www.inkscape.org/namespaces/inkscape"
   xmlns:sodipodi="http://sodipodi.sourceforge.net/DTD/sodipodi-0.dtd"
   xmlns="http://www.w3.org/2000/svg"
   xmlns:svg="http://www.w3.org/2000/svg"><defs
     id="defs36" /><sodipodi:namedview
     id="namedview34"
     pagecolor="#505050"
     bordercolor="#eeeeee"
     borderopacity="1"
     inkscape:showpageshadow="0"
     inkscape:pageopacity="0"
     inkscape:pagecheckerboard="0"
     inkscape:deskcolor="#505050"
     showgrid="false"
     inkscape:zoom="1.2291667"
     inkscape:cx="-50.440678"
     inkscape:cy="47.186441"
     inkscape:window-width="1884"
     inkscape:window-height="1052"
     inkscape:window-x="36"
     inkscape:window-y="0"
     inkscape:window-maximized="1"
     inkscape:current-layer="svg32" /><path
     d="M125.5 126.5C131.5 129 186.5 84 152 46.0013C141.917 34.8959 125.3 29.9002 96.5001 41.5002C67.7001 53.1002 71.5001 79.6669 77.0001 91.5002C93.0001 97.1002 95.3334 111.167 94.5001 117.5C118.1 108.7 123 120.333 125.5 126.5Z"
     fill="#ECECEC"
     id="path2" /><path
     d="M131.722 124.429C129.826 137.7 123.033 146.863 120.347 150.971C126.982 154.762 126.982 167.086 108.972 168.508C94.5631 169.646 91.9089 162.819 82.4296 155.711H85.7473L76.7421 142.913L79.5858 144.809L72.4764 130.59L79.5858 138.647L75.3201 118.74C80.0597 122.058 85.7473 124.524 85.7473 111.632C85.7473 98.7397 76.268 100.573 71.5284 103.101L56.3616 95.0433H63.945L41.1948 83.6674H56.3616L47.8303 76.5579L57.7835 78.9277L53.9918 70.8704H59.6794L51.148 63.7609L56.3616 62.339L32.1895 54.7556L57.7835 49.0688L41.1948 47.1722L82.4297 35.3231H63.945L70.1066 32.4793H59.6794L98.0704 25.8438L93.3307 23C116.46 23.7583 130.458 29.6355 134.566 32.4793L131.722 25.8438L152 46C109.343 19.458 81.4817 51.9126 80.0598 72.767C78.638 93.6214 97.5965 84.6161 100.914 95.0433C103.568 103.385 98.5444 107.366 95.7006 108.314V114.95L103.046 110.359C103.201 110.262 103.325 110.122 103.403 109.956L106.346 103.648C106.502 103.314 106.837 103.101 107.205 103.101H108.972C109.495 103.101 109.919 103.525 109.919 104.049V109.262C109.919 109.786 110.344 110.21 110.867 110.21H112.289C112.813 110.21 113.237 109.786 113.237 109.262V105.642C113.237 105.056 113.763 104.61 114.341 104.707L115.289 104.864C115.746 104.941 116.081 105.336 116.081 105.8V109.262C116.081 109.786 116.505 110.21 117.029 110.21H117.977C118.5 110.21 118.925 109.786 118.925 109.262V105.642C118.925 105.056 119.451 104.61 120.029 104.707L120.976 104.864C121.434 104.941 121.769 105.336 121.769 105.8V109.736C121.769 110.26 122.193 110.684 122.717 110.684H122.94C123.368 110.684 123.742 110.398 123.855 109.986L124.861 106.297C124.989 105.828 125.451 105.531 125.931 105.611L126.869 105.768C127.432 105.861 127.785 106.428 127.621 106.975L126.772 109.803C126.625 110.294 126.895 110.813 127.381 110.975L128.665 111.403C129.071 111.538 129.517 111.385 129.754 111.03L131.694 108.118C131.975 107.697 132.537 107.571 132.971 107.831L133.753 108.301C134.202 108.57 134.347 109.152 134.078 109.601L132.103 112.893C131.879 113.266 131.938 113.744 132.245 114.051L133.222 115.028C133.662 115.468 134.398 115.372 134.711 114.836L136.962 110.978C137.213 110.546 137.757 110.384 138.204 110.608L139.361 111.186C139.846 111.429 140.029 112.028 139.762 112.5L134.092 122.533L131.722 124.429Z"
     fill="#E85E5C"
     id="path4"
     style="fill:#ff837d;fill-opacity:1" /><path
     d="M101.862 112.104C104.137 103.763 100.914 93.1458 99.4924 92.6719L97.1226 93.6198L98.0705 114.474L101.862 112.104Z"
     fill="#E85E5C"
     id="path6"
     style="fill:#ff837d;fill-opacity:1" /><path
     d="M126.508 120.637C125.56 127.746 121.769 139.595 113.711 147.653C119.399 144.809 126.982 133.434 126.508 120.637Z"
     fill="#ECECEC"
     id="path8" /><path
     d="M128.132 95.6526L129.877 94.78C130.677 94.3802 131.647 94.5933 132.205 95.2913L134.47 98.1227C134.83 98.5724 135.375 98.8342 135.951 98.8342H136.468C137.681 98.8342 138.582 97.7111 138.319 96.5271L135.769 85.0558C135.449 83.6139 133.676 83.0761 132.608 84.0971L125.196 91.1872C124.573 91.7831 124.43 92.7243 124.849 93.4779L125.627 94.8776C126.12 95.7649 127.224 96.1065 128.132 95.6526Z"
     fill="#E85E5C"
     id="path10"
     style="fill:#ff837d;fill-opacity:1" /><path
     d="M138.831 76.8105V81.6697C138.831 81.7374 138.839 81.8084 138.854 81.8746C142.549 98.6552 153.018 93.7851 158.253 88.8761C158.548 88.5999 158.618 88.1572 158.435 87.7974C152.682 76.5137 143.892 75.1235 139.537 75.9254C139.116 76.003 138.831 76.3818 138.831 76.8105Z"
     fill="#E85E5C"
     id="path12"
     style="fill:#ff837d;fill-opacity:1" /><path
     d="M123.191 79.4003C126.881 77.4131 129.208 77.2503 130.409 77.5592C130.916 77.6895 131.569 77.6817 131.796 77.2098C132.721 75.2847 131.268 72.5869 130.3 71.3421C115.964 56.271 103.737 58.9881 98.9724 62.4789C98.7016 62.6774 98.578 63.0283 98.6332 63.3595C102.56 86.9178 117.076 82.6927 123.191 79.4003Z"
     fill="#E85E5C"
     id="path14"
     style="fill:#ff837d;fill-opacity:1" /><path
     d="M117.977 160.923C121.212 156.25 119.591 152.912 118.203 151.635C118.064 151.507 117.872 151.465 117.687 151.498C117.328 151.56 117.071 151.89 117.097 152.252C117.21 153.808 117.112 156.51 116.28 159.535C115.903 160.906 117.168 162.092 117.977 160.923Z"
     fill="#ECECEC"
     id="path16" /><path
     d="M94.828 146.603L93.6074 149.776C93.4301 150.237 93.4348 150.752 93.6528 151.195C94.0132 151.929 94.437 152.642 94.9141 153.332C95.4879 154.161 96.6531 154.288 97.2795 153.497C98.5326 151.916 99.3043 149.815 99.6998 148.25C99.8948 147.478 99.4993 146.703 98.8101 146.304C98.4355 146.087 98.0764 145.873 97.7348 145.664C96.6825 145.019 95.2711 145.451 94.828 146.603Z"
     fill="#ECECEC"
     id="path18" /><path
     d="M98.9582 156.816C98.829 153.742 99.9316 150.992 101 149.201C101.458 148.433 102.437 148.215 103.259 148.569C103.863 148.829 104.446 149.075 105.033 149.379C105.716 149.732 106.037 150.514 105.898 151.27C105.464 153.629 104.684 157.042 101.803 158.624C101.267 158.919 100.615 158.821 100.124 158.454C99.9633 158.334 99.7995 158.21 99.6431 158.09C99.2411 157.783 98.9794 157.322 98.9582 156.816Z"
     fill="#ECECEC"
     id="path20" /><path
     d="M105.642 161.747C105.97 161.885 106.298 162.014 106.625 162.134C107.516 162.462 108.494 162.005 108.888 161.141C109.847 159.041 110.996 156.241 110.934 152.474C110.921 151.715 110.365 151.094 109.629 150.903C108.805 150.688 107.925 151.06 107.551 151.825L105.736 155.541C105.681 155.653 105.638 155.77 105.606 155.89L104.627 159.606C104.397 160.478 104.81 161.399 105.642 161.747Z"
     fill="#ECECEC"
     id="path22" /><path
     d="M112.631 152.978C112.273 156.063 111.478 158.641 110.717 160.469C110.201 161.708 110.88 163.271 112.221 163.299C112.462 163.304 112.699 163.302 112.932 163.292C113.695 163.261 114.298 162.675 114.449 161.926C115.165 158.376 115.468 155.106 115.567 153.086C115.605 152.322 114.994 151.712 114.23 151.668C113.443 151.621 112.722 152.194 112.631 152.978Z"
     fill="#ECECEC"
     id="path24" /><path
     d="M42.6167 40.0619L53.9918 36.7441L63.4711 37.6921L42.6167 40.0619Z"
     fill="#E85E5C"
     id="path26"
     style="fill:#ff837d;fill-opacity:1" /><path
     d="M154.946 56.6512C153.05 50.5844 148.153 46.8559 145.941 45.75L149.258 52.3855L154.946 56.6512Z"
     fill="#E85E5C"
     id="path28"
     style="fill:#ff837d;fill-opacity:1" /><path
     d="M38.8249 99.782L50.2 103.1L41.6687 93.1465L68.2107 108.313L61.5752 110.209L71.0545 124.428L63.471 120.162L70.5805 136.277L60.6273 130.116L72.4763 148.126L30.2936 125.376L50.2 130.116L39.2989 119.688L48.3042 121.584L21.7622 101.204L43.0906 105.47L38.8249 99.782Z"
     fill="#E85E5C"
     id="path30"
     style="fill:#ff837d;fill-opacity:1" /><path
     d="m 133.04064,-91.350351 c 6,2.5 61,-42.499999 26.5,-80.498699 -10.083,-11.1054 -26.7,-16.1011 -55.4999,-4.5011 -28.800001,11.6 -25.000001,38.1667 -19.500001,50 16.000001,5.6 18.333301,19.6668 17.500001,25.9998 23.5999,-8.8 28.4999,2.832999 30.9999,8.999999 z"
     fill="#ececec"
     id="path2-6" /><path
     d="m 139.26264,-93.421351 c -1.896,13.271 -8.689,22.434 -11.375,26.542 6.635,3.791 6.635,16.115 -11.375,17.537 -14.4089,1.138 -17.063101,-5.689 -26.542401,-12.797 h 3.3177 l -9.0052,-12.798 2.8437,1.896 -7.1094,-14.219 7.1094,8.057 -4.2657,-19.907 c 4.7396,3.318 10.4272,5.784 10.4272,-7.107999 0,-12.8923 -9.4793,-11.059 -14.2189,-8.531 l -15.1668,-8.0577 h 7.5834 l -22.7502,-11.3759 h 15.1668 l -8.5313,-7.1095 9.9532,2.3698 -3.7917,-8.0573 h 5.6876 l -8.5314,-7.1095 5.2136,-1.4219 -24.1721,-7.5834 25.594,-5.6868 -16.5887,-1.8966 41.2349,-11.8491 h -18.4847 l 6.1616,-2.8438 h -10.4272 l 38.391001,-6.6355 -4.7397,-2.8438 c 23.1293,0.7583 37.1273,6.6355 41.2353,9.4793 l -2.844,-6.6355 20.278,20.1562 c -42.657,-26.542 -70.518301,5.9126 -71.940201,26.767 -1.4218,20.8544 17.536701,11.8491 20.854201,22.2763 2.654,8.3417 -2.3696,12.3227 -5.2134,13.2707 v 6.636 l 7.3454,-4.591 c 0.155,-0.097 0.279,-0.237 0.357,-0.403 l 2.943,-6.308 c 0.156,-0.334 0.491,-0.547 0.859,-0.547 h 1.767 c 0.523,0 0.947,0.424 0.947,0.948 v 5.213 c 0,0.524 0.425,0.948 0.948,0.948 h 1.422 c 0.524,0 0.948,-0.424 0.948,-0.948 v -3.62 c 0,-0.586 0.526,-1.032 1.104,-0.935 l 0.948,0.157 c 0.457,0.077 0.792,0.472 0.792,0.936 v 3.462 c 0,0.524 0.424,0.948 0.948,0.948 h 0.948 c 0.523,0 0.948,-0.424 0.948,-0.948 v -3.62 c 0,-0.586 0.526,-1.032 1.104,-0.935 l 0.947,0.157 c 0.458,0.077 0.793,0.472 0.793,0.936 v 3.936 c 0,0.524 0.424,0.948 0.948,0.948 h 0.223 c 0.428,0 0.802,-0.286 0.915,-0.698 l 1.006,-3.689 c 0.128,-0.469 0.59,-0.766 1.07,-0.686 l 0.938,0.157 c 0.563,0.093 0.916,0.66 0.752,1.207 l -0.849,2.828 c -0.147,0.491 0.123,1.01 0.609,1.172 l 1.284,0.428 c 0.406,0.135 0.852,-0.018 1.089,-0.373 l 1.94,-2.912 c 0.281,-0.421 0.843,-0.547 1.277,-0.287 l 0.782,0.47 c 0.449,0.269 0.594,0.851 0.325,1.3 l -1.975,3.292 c -0.224,0.373 -0.165,0.851 0.142,1.158 l 0.977,0.977 c 0.44,0.44 1.176,0.344 1.489,-0.192 l 2.251,-3.858 c 0.251,-0.432 0.795,-0.594 1.242,-0.37 l 1.157,0.578 c 0.485,0.243 0.668,0.842 0.401,1.314 l -5.67,10.032999 z"
     fill="#e85e5c"
     id="path4-0" /><path
     d="m 109.40264,-105.74635 c 2.275,-8.341 -0.948,-18.9582 -2.3696,-19.4321 l -2.3698,0.9479 0.9479,20.8542 z"
     fill="#e85e5c"
     id="path6-6" /><path
     d="m 134.04864,-97.213351 c -0.948,7.109 -4.739,18.958 -12.797,27.016 5.688,-2.844 13.271,-14.219 12.797,-27.016 z"
     fill="#ececec"
     id="path8-2" /><path
     d="m 135.67264,-122.19775 1.745,-0.8726 c 0.8,-0.3998 1.77,-0.1867 2.328,0.5113 l 2.265,2.8314 c 0.36,0.4497 0.905,0.7115 1.481,0.7115 h 0.517 c 1.213,0 2.114,-1.1231 1.851,-2.3071 l -2.55,-11.4713 c -0.32,-1.4419 -2.093,-1.9797 -3.161,-0.9587 l -7.412,7.0901 c -0.623,0.5959 -0.766,1.5371 -0.347,2.2907 l 0.778,1.3997 c 0.493,0.8873 1.597,1.2289 2.505,0.775 z"
     fill="#e85e5c"
     id="path10-6" /><path
     d="m 146.37164,-141.03985 v 4.8592 c 0,0.0677 0.008,0.1387 0.023,0.2049 3.695,16.7806 14.164,11.9105 19.399,7.0015 0.295,-0.2762 0.365,-0.7189 0.182,-1.0787 -5.753,-11.2837 -14.543,-12.6739 -18.898,-11.872 -0.421,0.0776 -0.706,0.4564 -0.706,0.8851 z"
     fill="#e85e5c"
     id="path12-1" /><path
     d="m 130.73164,-138.45005 c 3.69,-1.9872 6.017,-2.15 7.218,-1.8411 0.507,0.1303 1.16,0.1225 1.387,-0.3494 0.925,-1.9251 -0.528,-4.6229 -1.496,-5.8677 -14.336,-15.0711 -26.563,-12.354 -31.3276,-8.8632 -0.2708,0.1985 -0.3944,0.5494 -0.3392,0.8806 3.9268,23.5583 18.4428,19.3332 24.5578,16.0408 z"
     fill="#e85e5c"
     id="path14-8" /><path
     d="m 125.51764,-56.927351 c 3.235,-4.673 1.614,-8.011 0.226,-9.288 -0.139,-0.128 -0.331,-0.17 -0.516,-0.137 -0.359,0.062 -0.616,0.392 -0.59,0.754 0.113,1.556 0.015,4.258 -0.817,7.283 -0.377,1.371 0.888,2.557 1.697,1.388 z"
     fill="#ececec"
     id="path16-7" /><path
     d="m 102.36864,-71.247351 -1.2206,3.173 c -0.1773,0.461 -0.1726,0.976 0.0454,1.419 0.3604,0.734 0.7842,1.447 1.2613,2.137 0.5738,0.829 1.739,0.956 2.3654,0.165 1.2531,-1.581 2.0248,-3.682 2.4203,-5.247 0.195,-0.772 -0.2005,-1.547 -0.8897,-1.946 -0.3746,-0.217 -0.7337,-0.431 -1.0753,-0.64 -1.0523,-0.645 -2.4637,-0.213 -2.9068,0.939 z"
     fill="#ececec"
     id="path18-9" /><path
     d="m 106.49884,-61.034351 c -0.1292,-3.074 0.9734,-5.824 2.0418,-7.615 0.458,-0.768 1.437,-0.986 2.259,-0.632 0.604,0.26 1.187,0.506 1.774,0.81 0.683,0.353 1.004,1.135 0.865,1.891 -0.434,2.359 -1.214,5.772 -4.095,7.354 -0.536,0.295 -1.188,0.197 -1.679,-0.17 -0.1607,-0.12 -0.3245,-0.244 -0.4809,-0.364 -0.402,-0.307 -0.6637,-0.768 -0.6849,-1.274 z"
     fill="#ececec"
     id="path20-2" /><path
     d="m 113.18264,-56.103351 c 0.328,0.138 0.656,0.267 0.983,0.387 0.891,0.328 1.869,-0.129 2.263,-0.993 0.959,-2.1 2.108,-4.9 2.046,-8.667 -0.013,-0.759 -0.569,-1.38 -1.305,-1.571 -0.824,-0.215 -1.704,0.157 -2.078,0.922 l -1.815,3.716 c -0.055,0.112 -0.098,0.229 -0.13,0.349 l -0.979,3.716 c -0.23,0.872 0.183,1.793 1.015,2.141 z"
     fill="#ececec"
     id="path22-0" /><path
     d="m 120.17164,-64.872351 c -0.358,3.085 -1.153,5.663 -1.914,7.491 -0.516,1.239 0.163,2.802 1.504,2.83 0.241,0.005 0.478,0.003 0.711,-0.007 0.763,-0.031 1.366,-0.617 1.517,-1.366 0.716,-3.55 1.019,-6.82 1.118,-8.84 0.038,-0.764 -0.573,-1.374 -1.337,-1.418 -0.787,-0.047 -1.508,0.526 -1.599,1.31 z"
     fill="#ececec"
     id="path24-2" /><path
     d="m 50.157339,-177.78845 11.3751,-3.3178 9.4793,0.948 z"
     fill="#e85e5c"
     id="path26-3" /><path
     d="m 162.48664,-161.19915 c -1.896,-6.0668 -6.793,-9.7953 -9.005,-10.9012 l 3.317,6.6355 z"
     fill="#e85e5c"
     id="path28-7" /><path
     d="m 46.365539,-118.06835 11.3751,3.318 -8.5313,-9.9535 26.542,15.1665 -6.6355,1.896 9.4793,14.218999 -7.5835,-4.266 7.1095,16.115 -9.9532,-6.161 11.849,18.01 -42.1827,-22.75 19.9064,4.74 -10.9011,-10.428 9.0053,1.896 -26.542,-20.379999 21.3284,4.266 z"
     fill="#e85e5c"
     id="path30-5" /></svg>

<svg xmlns="http://www.w3.org/2000/svg" xml:space="preserve" width="192" height="192" fill="none"><path fill="#ECECEC" d="M125.5 126.5c6 2.5 61-42.5 26.5-80.499-10.083-11.105-26.7-16.1-55.5-4.5-28.8 11.6-25 38.166-19.5 50 16 5.6 18.333 19.666 17.5 25.999 23.6-8.8 28.5 2.833 31 9Z"/><path fill="#E85E5C" d="M131.722 124.429c-1.896 13.271-8.689 22.434-11.375 26.542 6.635 3.791 6.635 16.115-11.375 17.537-14.409 1.138-17.063-5.689-26.542-12.797h3.317l-9.005-12.798 2.844 1.896-7.11-14.219 7.11 8.057-4.266-19.907c4.74 3.318 10.427 5.784 10.427-7.108s-9.479-11.059-14.219-8.531l-15.166-8.058h7.583l-22.75-11.376h15.167l-8.532-7.11 9.953 2.37-3.791-8.057h5.687l-8.531-7.11 5.214-1.421-24.172-7.583 25.593-5.687-16.588-1.897L82.43 35.323H63.945l6.162-2.844H59.679l38.391-6.635L93.33 23c23.13.758 37.128 6.636 41.236 9.48l-2.844-6.636L152 46c-42.657-26.542-70.518 5.913-71.94 26.767-1.422 20.854 17.537 11.85 20.854 22.276 2.654 8.342-2.37 12.323-5.213 13.271v6.636l7.345-4.591a.954.954 0 0 0 .357-.403l2.943-6.308a.948.948 0 0 1 .859-.547h1.767c.523 0 .947.424.947.948v5.213c0 .524.425.948.948.948h1.422a.947.947 0 0 0 .948-.948v-3.62a.948.948 0 0 1 1.104-.935l.948.157a.95.95 0 0 1 .792.936v3.462c0 .524.424.948.948.948h.948a.948.948 0 0 0 .948-.948v-3.62a.948.948 0 0 1 1.104-.935l.947.157a.95.95 0 0 1 .793.936v3.936c0 .524.424.948.948.948h.223a.948.948 0 0 0 .915-.698l1.006-3.689a.948.948 0 0 1 1.07-.686l.938.157c.563.093.916.66.752 1.207l-.849 2.828a.949.949 0 0 0 .609 1.172l1.284.428a.95.95 0 0 0 1.089-.373l1.94-2.912a.949.949 0 0 1 1.277-.287l.782.47a.947.947 0 0 1 .325 1.3l-1.975 3.292a.948.948 0 0 0 .142 1.158l.977.977a.948.948 0 0 0 1.489-.192l2.251-3.858a.946.946 0 0 1 1.242-.37l1.157.578a.948.948 0 0 1 .401 1.314l-5.67 10.033-2.37 1.896Z" style="fill:#ff837d;fill-opacity:1"/><path fill="#E85E5C" d="M101.862 112.104c2.275-8.341-.948-18.958-2.37-19.432l-2.37.948.948 20.854 3.792-2.37Z" style="fill:#ff837d;fill-opacity:1"/><path fill="#ECECEC" d="M126.508 120.637c-.948 7.109-4.739 18.958-12.797 27.016 5.688-2.844 13.271-14.219 12.797-27.016Z"/><path fill="#E85E5C" d="m128.132 95.653 1.745-.873c.8-.4 1.77-.187 2.328.511l2.265 2.832c.36.45.905.711 1.481.711h.517a1.896 1.896 0 0 0 1.851-2.307l-2.55-11.471c-.32-1.442-2.093-1.98-3.161-.959l-7.412 7.09a1.895 1.895 0 0 0-.347 2.29l.778 1.4a1.896 1.896 0 0 0 2.505.776ZM138.831 76.81v4.86c0 .067.008.138.023.205 3.695 16.78 14.164 11.91 19.399 7.001a.913.913 0 0 0 .182-1.079c-5.753-11.283-14.543-12.673-18.898-11.872-.421.078-.706.457-.706.886ZM123.191 79.4c3.69-1.987 6.017-2.15 7.218-1.84.507.13 1.16.122 1.387-.35.925-1.925-.528-4.623-1.496-5.868-14.336-15.071-26.563-12.354-31.328-8.863a.91.91 0 0 0-.339.88c3.927 23.559 18.443 19.334 24.558 16.041Z" style="fill:#ff837d;fill-opacity:1"/><path fill="#ECECEC" d="M117.977 160.923c3.235-4.673 1.614-8.011.226-9.288a.599.599 0 0 0-.516-.137.718.718 0 0 0-.59.754c.113 1.556.015 4.258-.817 7.283-.377 1.371.888 2.557 1.697 1.388ZM94.828 146.603l-1.22 3.173c-.178.461-.173.976.045 1.419.36.734.784 1.447 1.261 2.137.574.829 1.74.956 2.365.165 1.254-1.581 2.025-3.682 2.42-5.247.196-.772-.2-1.547-.889-1.946a52.16 52.16 0 0 1-1.075-.64c-1.052-.645-2.464-.213-2.907.939ZM98.958 156.816c-.129-3.074.974-5.824 2.042-7.615.458-.768 1.437-.986 2.259-.632.604.26 1.187.506 1.774.81.683.353 1.004 1.135.865 1.891-.434 2.359-1.214 5.772-4.095 7.354-.536.295-1.188.197-1.679-.17-.16-.12-.325-.244-.48-.364a1.704 1.704 0 0 1-.686-1.274ZM105.642 161.747c.328.138.656.267.983.387.891.328 1.869-.129 2.263-.993.959-2.1 2.108-4.9 2.046-8.667-.013-.759-.569-1.38-1.305-1.571-.824-.215-1.704.157-2.078.922l-1.815 3.716a1.904 1.904 0 0 0-.13.349l-.979 3.716c-.23.872.183 1.793 1.015 2.141ZM112.631 152.978c-.358 3.085-1.153 5.663-1.914 7.491-.516 1.239.163 2.802 1.504 2.83.241.005.478.003.711-.007.763-.031 1.366-.617 1.517-1.366a61.935 61.935 0 0 0 1.118-8.84c.038-.764-.573-1.374-1.337-1.418-.787-.047-1.508.526-1.599 1.31Z"/><path fill="#E85E5C" d="m42.617 40.062 11.375-3.318 9.48.948-20.855 2.37ZM154.946 56.651c-1.896-6.067-6.793-9.795-9.005-10.901l3.317 6.636 5.688 4.265ZM38.825 99.782 50.2 103.1l-8.531-9.953 26.542 15.166-6.636 1.896 9.48 14.219-7.584-4.266 7.11 16.115-9.954-6.161 11.85 18.01-42.183-22.75 19.906 4.74-10.901-10.428 9.005 1.896-26.542-20.38 21.329 4.266-4.266-5.688Z" style="fill:#ff837d;fill-opacity:1"/><path fill="#ececec" d="M133.04-91.35c6 2.5 61-42.5 26.5-80.5-10.082-11.104-26.7-16.1-55.5-4.5-28.8 11.6-25 38.167-19.5 50 16 5.6 18.334 19.667 17.5 26 23.6-8.8 28.5 2.833 31 9z"/><path fill="#e85e5c" d="M139.263-93.421c-1.896 13.27-8.69 22.434-11.375 26.542 6.635 3.79 6.635 16.115-11.375 17.537-14.41 1.138-17.063-5.69-26.543-12.797h3.318l-9.005-12.798 2.843 1.896-7.109-14.22 7.11 8.058L82.86-99.11c4.74 3.318 10.427 5.784 10.427-7.108 0-12.893-9.48-11.06-14.219-8.531l-15.167-8.058h7.584l-22.75-11.376h15.166l-8.531-7.11 9.953 2.37-3.792-8.057h5.688l-8.531-7.11 5.213-1.421-24.172-7.584 25.594-5.687-16.589-1.896 41.235-11.85H71.486l6.161-2.843H67.22l38.391-6.636-4.74-2.843c23.13.758 37.128 6.635 41.236 9.479l-2.844-6.636 20.278 20.157c-42.657-26.542-70.519 5.912-71.94 26.767-1.422 20.854 17.536 11.849 20.854 22.276 2.654 8.342-2.37 12.323-5.214 13.27v6.637l7.346-4.591a.954.954 0 0 0 .357-.403l2.943-6.308a.948.948 0 0 1 .859-.547h1.767c.523 0 .947.424.947.948v5.213c0 .524.425.948.948.948h1.422a.947.947 0 0 0 .948-.948v-3.62a.948.948 0 0 1 1.104-.935l.948.157a.95.95 0 0 1 .792.936v3.462c0 .524.424.948.948.948h.948a.948.948 0 0 0 .948-.948v-3.62a.948.948 0 0 1 1.104-.935l.947.157a.95.95 0 0 1 .793.936v3.936c0 .524.424.948.948.948h.223a.948.948 0 0 0 .915-.698l1.006-3.69a.948.948 0 0 1 1.07-.685l.938.157c.563.093.916.66.752 1.207l-.85 2.828a.949.949 0 0 0 .61 1.172l1.284.428a.95.95 0 0 0 1.089-.373l1.94-2.912a.949.949 0 0 1 1.277-.287l.782.47a.947.947 0 0 1 .325 1.3l-1.975 3.292a.948.948 0 0 0 .142 1.158l.977.977a.948.948 0 0 0 1.489-.192l2.25-3.858a.946.946 0 0 1 1.243-.37l1.157.578a.948.948 0 0 1 .4 1.314l-5.67 10.033z"/><path fill="#e85e5c" d="M109.403-105.746c2.275-8.341-.948-18.959-2.37-19.432l-2.37.947.948 20.855z"/><path fill="#ececec" d="M134.049-97.213c-.948 7.109-4.74 18.958-12.797 27.016 5.688-2.844 13.27-14.22 12.797-27.016z"/><path fill="#e85e5c" d="m135.673-122.198 1.745-.872c.8-.4 1.77-.187 2.328.51l2.265 2.832c.36.45.905.712 1.48.712h.518a1.896 1.896 0 0 0 1.85-2.307l-2.55-11.472c-.32-1.441-2.092-1.98-3.16-.958l-7.412 7.09a1.895 1.895 0 0 0-.347 2.29l.778 1.4a1.896 1.896 0 0 0 2.505.775zM146.372-141.04v4.86c0 .067.008.138.023.204 3.695 16.78 14.164 11.91 19.399 7.002a.913.913 0 0 0 .182-1.079c-5.753-11.284-14.543-12.674-18.898-11.872-.421.078-.706.456-.706.885zM130.732-138.45c3.69-1.987 6.017-2.15 7.218-1.841.507.13 1.16.122 1.387-.35.925-1.925-.528-4.622-1.496-5.867-14.336-15.071-26.563-12.354-31.328-8.863a.91.91 0 0 0-.34.88c3.928 23.558 18.444 19.333 24.559 16.04z"/><path fill="#ececec" d="M125.518-56.927c3.235-4.673 1.614-8.011.226-9.288a.599.599 0 0 0-.516-.137.718.718 0 0 0-.59.754c.113 1.556.015 4.258-.817 7.283-.377 1.37.888 2.557 1.697 1.388zM102.369-71.247l-1.221 3.173c-.177.46-.173.976.045 1.419.36.734.785 1.447 1.262 2.137.574.829 1.739.956 2.365.165 1.253-1.581 2.025-3.682 2.42-5.247.195-.772-.2-1.547-.89-1.946a52.16 52.16 0 0 1-1.075-.64c-1.052-.645-2.463-.213-2.906.939zM106.499-61.034c-.13-3.074.973-5.824 2.042-7.615.458-.768 1.437-.986 2.259-.632.604.26 1.187.506 1.774.81.683.353 1.004 1.135.865 1.89-.434 2.36-1.214 5.773-4.095 7.355-.536.295-1.188.197-1.68-.17-.16-.12-.324-.244-.48-.364a1.704 1.704 0 0 1-.685-1.274zM113.183-56.103c.328.138.656.267.983.387.89.328 1.869-.13 2.263-.993.959-2.1 2.108-4.9 2.046-8.667-.013-.76-.57-1.38-1.305-1.571-.824-.215-1.704.157-2.078.922l-1.815 3.716a1.904 1.904 0 0 0-.13.349l-.98 3.716c-.23.872.184 1.793 1.016 2.14zM120.172-64.872c-.358 3.085-1.153 5.663-1.914 7.49-.516 1.24.163 2.803 1.504 2.83.24.006.478.004.71-.006.764-.031 1.367-.617 1.518-1.366a61.935 61.935 0 0 0 1.118-8.84c.038-.764-.573-1.374-1.337-1.418-.787-.047-1.508.526-1.6 1.31z"/><path fill="#e85e5c" d="m50.157-177.788 11.375-3.318 9.48.948zM162.487-161.2c-1.896-6.066-6.793-9.794-9.005-10.9l3.317 6.635zM46.366-118.068l11.375 3.318-8.532-9.954 26.542 15.167-6.635 1.896 9.48 14.219-7.584-4.266 7.11 16.115-9.954-6.161 11.849 18.01-42.183-22.75 19.907 4.74L46.84-98.162l9.005 1.896-26.542-20.38 21.328 4.266z"/></svg>
